X:580
T:Black Pat's
O:england
M:C
L:1/8
C:Tommy Peoples
S:Tommy Peoples
R:Reel
D:The Quiet Glen
K:F
D3E|:F3A d2cA|G2AG FDDE|F3A dccA|Acfa g2fg|\
af~f2 gfdc|(3ccA cA GFDE|FEFA dccA|1GcAG F4:|2GcAG F3 D|]\
CF~F2 FDCD|~F3G Ad ~d2|c2AF ~c2AF|G2AG FDDE|\
F3G FDCD|FEFA d2fg|af~f2 gfdf|cfag f4|c3A AGFD|\
CDFG Ad~d2|~c2AF cFAF|~G2AG FDDE|F3G FDCD|\
FEFA d2fg|af~f2 gfdf|cfag f4|:~a3f cdcd|\
fdcA F4|a2fc acfc|dggf g2fg|~a3f dfcd|\
fdcA (3Bcd fg|a2gf dccA|GFFD F4:|
